X: 30851
T: COTILLION No. 4. COQUETTE SETT tune 4
%R: jig
B: Elias Howe "The Musician's Companion" Part 3 1844 p.85 #1
S: http://imslp.org/wiki/The_Musician's_Companion_(Howe,_Elias)
Z: 2015 John Chambers <jc:trillian.mit.edu>
M: 6/8
L: 1/8
K: D
% - - - - - - - - - - - - - - - - - - - - - - - - - - - - -
A |\
F>ED f>ed | A(3(fed) Adf | f>ed a>fd | Adf e2A |\
F>ED f>ed | A(3(fed) Ade | f(3(afd) e(3(gec) | dAF D2 H|]
d/e/ |\
f2f g2g | baa a2f | dfa Adf | fag e2 d/e/ |\
f2f g2g | baa a2g | f>ad egf | dfe "^D.C."d2 |]
d/f/ |\
baf Adf | DFA dfa | age Ace | DFA dfa |\
baf Adf | DFA dfa | age ABc | d2f "^D.C."d2 |]
% - - - - - - - - - - Dance description - - - - - - - - - -
%%begintext align
%% First 2 give right hand across,
%% left hand back,
%% form a line and balance 4,
%% half promenade,
%% ladies forward and back,
%% gentlemen the same, &c.
%% Next couple, &c.
%%endtext
% - - - - - - - - - - - - - - - - - - - - - - - - - - - - -
%%sep 1 1 300
